static/Icons/location1.svg

<svg fill="none" height="24" viewBox="0 0 24 24" width="24" xmlns="http://www.w3.org/2000/svg"><g fill="#292d32"><path d="m20.6191 8.45c-1.05-4.62-5.08-6.7-8.62-6.7 0 0 0 0-.01 0-3.52998 0-7.56998 2.07-8.61998 6.69-1.17 5.16 1.99 9.53 4.85 12.28 1.06 1.02 2.41998 1.53 3.77998 1.53s2.72-.51 3.77-1.53c2.86-2.75 6.02-7.11 4.85-12.27z" opacity=".4"/><path d="m11.9996 13.4602c1.7397 0 3.15-1.4103 3.15-3.15 0-1.73974-1.4103-3.15004-3.15-3.15004s-3.14999 1.4103-3.14999 3.15004c0 1.7397 1.41029 3.15 3.14999 3.15z"/></g></svg>

<svg width="24" height="24" viewBox="0 0 24 24" fill="none" xmlns="http://www.w3.org/2000/svg">
<path opacity="0.4" d="M20.6191 8.45C19.5691 3.83 15.5391 1.75 11.9991 1.75C11.9991 1.75 11.9991 1.75 11.9891 1.75C8.45912 1.75 4.41912 3.82 3.36912 8.44C2.19912 13.6 5.35912 17.97 8.21912 20.72C9.27912 21.74 10.6391 22.25 11.9991 22.25C13.3591 22.25 14.7191 21.74 15.7691 20.72C18.6291 17.97 21.7891 13.61 20.6191 8.45Z" fill="#292D32"/>
<path d="M11.9996 13.4602C13.7393 13.4602 15.1496 12.0499 15.1496 10.3102C15.1496 8.57046 13.7393 7.16016 11.9996 7.16016C10.2599 7.16016 8.84961 8.57046 8.84961 10.3102C8.84961 12.0499 10.2599 13.4602 11.9996 13.4602Z" fill="#292D32"/>
</svg>
